X: 2
T: The Butterfly
R: slip jig
M: 9/8
L: 1/8
K: Emin
|: B2 E G2 E F3 | B2 E G2 E FF/G/A | B2 E G2 E F3 | B2 d d2 B AFD :||: B2 d e2 f g2 d | B2 d g2 e dBA | B2 d dd/e/f g2 a | b2 a g2 e dBA :||: B3- B2 A G2 A | B3 B^AB dB=A | BcB B2 A G2 A | Bcd g2 e dB^A :|


Tune 10	Setting 21788

